X:1
T:Title
%%score ( 1 2 ) { ( 3 6 ) | ( 4 5 ) }
L:1/8
Q:1/4=120
M:2/4
K:G
V:1 treble nm="MusicXML Part"
V:2 treble 
V:3 treble nm="MusicXML Part"
V:6 treble 
V:4 bass 
V:5 bass 
V:1
"^mf""^Zugvögelein, Op. 37""^Allegretto" G | G2 DG/A/ | B/c/B/A/ GB | A2 z d | %4
w: Klein|Vög- lein, wi- di|wi- di wi- di witt witt,|spricht: Lieb'|
w: Klein|Kna- be, wi- di|wi- di wi- di witt witt,|spricht: Noch|
w: Klein|Vög- lein, wi- di|wi- di wi- di witt witt,|spricht: Ver-|
w: Klein|Kna- be, wi- di|wi- di wi- di witt witt,|spricht: Dann|
"^Carl Reinecke (1824-1910)"!>(! d2!>)! Ac | B2 z B |"^dolce" AA BA | A3 (G/F/) | FE DE | F3 A | %10
w: Kna- be, komm|mit! Will|in die Fer- ne|ziehn, wo *|schö- ne Blu- men|blühn, lieb'|
w: darf ich nicht|mit! Mußt|war- ten, Vö- ge-|lein, ich *|bin noch gar so|klein, noch|
w: giss mich auch|nit! Kehrt|Früh- ling wie- der|ein, du *|lie- ber Kna- be|mein, sing'|
w: zie- he ich|mit, drum|ler ne ich jetzt|schön, bis *|wir uns wie- der|sehn, lieb'|
 AA BA | A3 (G/F/) | (FE) DE | F2 z G |"^f" G2 DG/A/ | B/c/B/A/ GB | A2 z d |!>(! d2!>)! Ac | %18
w: Kna * be, komm|mit, lieb' *|Kna * be, komm|mit, lieb'|Kna- be, wi- di|wi- di wi- di witt witt|witt, lieb'|Kna- be, komm|
w: darf * ich nicht|mit, noch *|darf * ich nicht|mit, lieb'|Vög- lein, wi- di|wi- di wi- di witt witt|witt, noch|darf ich nicht|
w: wie- der ich: witt|witt, lieb' *|Kna * be, komm|mit, lieb'|Kna- be, wi- di|wi- di wi- di witt witt|witt, lieb'|Kna- be, komm|
w: Vög * lein, witt|witt, lieb' *|Vög * lein, witt|witt, lieb'|Vög- lein, wi- di|wi- di wi- di witt witt|witt, dann|zie- he ich|
 B2 z :| %19
w: mit!|
w: mit.|
w: mit!|
w: mit!|
V:2
 x | x4 | x4 | x4 | x4 | x4 | x4 | x4 | x4 | x4 | A2 x2 | x4 | x4 | x4 | x4 | x4 | x4 | x4 | x3 :| %19
V:3
 [B,D] | [B,D]2 .[B,D].[B,D] | .[B,D].[F,CD].[G,B,D].[G,B,D] | [F,A,D]2 z d | [DAd]2 [DA][DAc] | %5
 [DGB]2 z2 | ([^CG]/A,/[DG]/A,/ [EG]/A,/[CG]/A,/) | ([DF]/A,/[DG]/A,/ [DA]/A,/[DG]/[A,F]/) | %8
 ([^CF]/A,/[CE]/A,/ [B,D]/A,/[CE]/A,/) | ([DF]/A,/[DG]/A,/ [D^G]/A,/[DA]/A,/) | A2 x2 | x4 | x4 | %13
 x4 | [B,D]2 .[B,D].[B,D] | .[B,D].[F,CD].[G,B,D].[B,D] | [F,A,D]2 z2 | %17
!>(!!>(! [DAd]2!>)! [DA][DAc]!>)! | [DGB]2 z :| %19
V:4
"^mf" [G,,D,] | [G,,D,]2 .[G,,D,].[D,,D,] | .[G,,D,].[A,,D,].[B,,D,].[G,,D,] | [D,,D,]2 z2 | %4
 [D,F,]2 [D,F,][D,F,] | G,2 G,,2 |"^p" (A,,B,,^C,A,,) | (D,E,F,D,) | G,2 F,G, | ([D,F,]E,^E,F,) | %10
 (G,A,,B,,^C,) | (D,E,F,D,) | [A,,G,]3 [A,,G,] | [D,F,]2 z2 |"^f" [G,,D,]2 .[G,,D,].[D,,D,] | %15
 .[G,,D,].[A,,D,].[B,,D,].[G,,D,] | D,2 z2 | [D,F,]2 [D,F,][D,F,] |"^p" [G,,D,G,]2 z :| %19
V:5
 x | x4 | x4 | x4 | x4 | x4 | x4 | x4 | A,,4 | x4 | x4 | x4 | x4 | x4 | x4 | x4 | x4 | x4 | x3 :| %19
V:6
 x | x4 | x4 | x4 | x4 | x4 | x4 | x4 | x4 | x4 | E/A,/^C/A,/ [DG]/A,/[EG]/A,/ | %11
 ([DF]/A,/[DG]/A,/ [DA]/A,/[DG]/[A,F]/) | ([^CF]/A,/[CE]/A,/ [B,D]/A,/[CE]/A,/) | %13
 [DF]/.D/.F/.E/ .D/.C/.B,/.A,/ | x4 | x4 | x4 | x4 | x3 :| %19

